X:1
T: Neil Gow's Second Wife
T: Niel Gow's Second Wife
C:
R:Strathspey
Q: 128
K:Gm
M:4/4
L:1/16
|:d2|BG3 G3B AF3 F3A|BG3 G3A B3A B2g2|BG3 G3B AF3 F3A|BB3 c3B F2B2 B2d2|
BG3 G3B AF3 F3A|BG3 G3A B3A B2g2|BG3 G3B AF3 F3A|BB3 c3B F2B2 B2d2|
BB3 d3B f3B d3B|FF3 A3F c3F A2c2|BB3 d3B f3B d3f|g3g b3g dg3 g3b|
fd3 d3f ec3 c3e|dB3 B3d B3A B3F|GG3 B4 cc3 d3c|B3G BAGF D2G2 G2:|
